build/dist/assets/images/services/services-4.svg

<svg width="68" height="110" viewBox="0 0 68 110" fill="none" xmlns="http://www.w3.org/2000/svg">
<path d="M43.1101 105C39.4409 105 36.4805 102.047 36.4805 98.386V73.7188C36.4805 72.6373 35.6049 71.7637 34.5208 71.7637C33.4368 71.7637 32.5612 72.6373 32.5612 73.7188V98.386C32.5612 102.047 29.6008 105 25.9316 105C22.7211 105 19.9692 102.712 19.4272 99.5923L14.4238 72.6789C12.9228 64.4426 17.2174 56.3727 24.931 53.0449L52.0745 41.3145C57.4949 38.2779 60.8722 32.5374 60.8722 26.3394C60.8305 16.8552 53.1169 9.15973 43.6104 9.15973H27.391C26.3903 19.2263 18.3848 27.2962 8.2946 28.2945C9.29528 36.8636 16.5919 43.5191 25.3896 43.5191V47.6789C13.5899 47.6789 4 38.1115 4 26.3394V24.2596H6.20984C15.6329 24.1764 23.3049 16.4809 23.3049 7.07987V5H43.6104C55.4101 5 65 14.5674 65 26.3394C65 34.0765 60.7888 41.2313 53.9925 45.0166L53.8257 45.0998L26.5988 56.8719C20.6781 59.4093 17.3841 65.6073 18.5516 71.9301L23.5133 98.802C23.7218 99.9667 24.7642 100.799 25.9316 100.799C27.3076 100.799 28.3917 99.6755 28.3917 98.3444V73.6772C28.3917 70.3078 31.1435 67.5624 34.5208 67.5624C37.8982 67.5624 40.65 70.3078 40.65 73.6772V98.3444C40.65 99.7171 41.7758 100.799 43.1101 100.799C44.3192 100.799 45.3199 99.9667 45.5284 98.802L50.4901 71.9301C50.9904 69.2679 50.6569 66.5641 49.6145 64.0682L53.4504 62.4459C54.8264 65.6905 55.2433 69.2263 54.6179 72.7205L49.6562 99.5923C49.0725 102.712 46.3206 105 43.1101 105Z" fill="#00AEDA"/>
</svg>

<svg width="68" height="110" fill="none" xmlns="http://www.w3.org/2000/svg"><path d="M43.11 105a6.612 6.612 0 01-6.63-6.614V73.719a1.955 1.955 0 00-1.96-1.955 1.955 1.955 0 00-1.959 1.955v24.667a6.612 6.612 0 01-6.63 6.614c-3.21 0-5.962-2.288-6.504-5.408L14.424 72.68c-1.501-8.236 2.793-16.306 10.507-19.634l27.143-11.73c5.42-3.037 8.798-8.778 8.798-14.976-.041-9.484-7.755-17.18-17.262-17.18H27.391c-1 10.067-9.006 18.137-19.096 19.136 1 8.569 8.297 15.224 17.095 15.224v4.16C13.59 47.679 4 38.11 4 26.339v-2.08h2.21c9.423-.083 17.095-7.778 17.095-17.18V5H43.61C55.41 5 65 14.567 65 26.34c0 7.737-4.211 14.891-11.008 18.677l-.166.083-27.227 11.772c-5.92 2.537-9.215 8.735-8.047 15.058l4.961 26.872c.209 1.165 1.251 1.997 2.419 1.997a2.462 2.462 0 002.46-2.455V73.677c0-3.37 2.752-6.115 6.129-6.115s6.129 2.746 6.129 6.115v24.667a2.462 2.462 0 002.46 2.455c1.21 0 2.21-.832 2.418-1.997L50.49 71.93c.5-2.662.167-5.366-.876-7.862l3.836-1.622a18.052 18.052 0 011.168 10.275l-4.962 26.871c-.584 3.12-3.335 5.408-6.546 5.408z" fill="#00AEDA"/></svg>
